public/logos/imo.svg

<svg width="20" height="20" viewBox="0 0 20 20" fill="none" xmlns="http://www.w3.org/2000/svg">
  <rect width="20" height="20" rx="4" fill="white" />
  <path
    d="M10.0993 15C9.07166 15 8.12136 14.6787 7.33681 14.1319C6.96663 14.3292 6.13236 14.3743 5.76771 14.3292C5.2373 14.2672 4.6848 13.8162 5.2152 13.3822C6.04396 12.7114 5.82296 12.4408 5.82296 12.4408C5.42516 11.7193 5.19863 10.885 5.19863 10C5.19863 7.23788 7.39206 5 10.0993 5C12.8066 5 15 7.23788 15 10C15 12.7621 12.8066 15 10.0993 15ZM10.0993 5.73281C7.77329 5.73281 5.88926 7.65502 5.88926 10.0338C5.88926 10.8512 6.11026 11.6178 6.50253 12.2661C6.50253 12.2661 6.77878 12.9989 6.07158 13.54C6.51358 13.6922 7.45283 13.4104 7.49703 13.4104C8.21529 13.9853 9.12139 14.3292 10.0993 14.3292C12.4253 14.3292 14.3094 12.4014 14.3094 10.0282C14.3094 7.65502 12.4253 5.73281 10.0993 5.73281ZM12.3535 11.2627C11.8397 11.2627 11.4419 10.9188 11.4419 10.3326C11.4419 9.74634 11.8176 9.37993 12.3867 9.37993C12.9281 9.37993 13.2872 9.75761 13.2872 10.2988C13.2872 10.9583 12.8287 11.2627 12.3535 11.2627ZM12.3701 9.77452C12.1049 9.77452 12.011 10.0507 12.011 10.3157C12.011 10.6257 12.138 10.8568 12.3701 10.8568C12.5856 10.8568 12.7182 10.637 12.7182 10.3157C12.7182 10.0507 12.6187 9.77452 12.3701 9.77452ZM10.8341 11.2176C10.8341 11.2176 10.6242 11.2176 10.5358 11.2176C10.3977 11.2176 10.4253 11.009 10.4253 11.009V10.2368C10.4253 9.97745 10.3424 9.82525 10.1656 9.82525C10.0385 9.82525 9.95014 9.91545 9.91146 10.0225C9.89489 10.062 9.88936 10.124 9.88936 10.1691V11.0485C9.88936 11.0485 9.88936 11.2232 9.73466 11.2232C9.62416 11.2232 9.49156 11.2232 9.49156 11.2232C9.49156 11.2232 9.35344 11.212 9.35344 11.0316C9.35344 10.7384 9.35344 10.2142 9.35344 10.2142C9.35344 9.98309 9.27609 9.83089 9.09929 9.83089C8.96116 9.83089 8.87829 9.94363 8.84514 10.0338C8.82856 10.0789 8.82304 10.1297 8.82304 10.1747V11.0316C8.82304 11.0316 8.84514 11.2232 8.70149 11.2232C8.62966 11.2232 8.54126 11.2232 8.46391 11.2232C8.28711 11.2232 8.28711 11.0316 8.28711 11.0316V9.99436C8.28711 9.81962 8.27606 9.52649 8.27606 9.52649C8.27606 9.52649 8.27054 9.41939 8.38656 9.41939C8.45839 9.41939 8.54679 9.41939 8.61309 9.41939C8.72359 9.41939 8.74016 9.52649 8.74016 9.52649L8.75121 9.66178H8.76226C8.83961 9.54904 8.99431 9.37993 9.29819 9.37993C9.52471 9.37993 9.70704 9.49831 9.78439 9.68433H9.78991C9.85621 9.59414 9.93356 9.52086 10.0164 9.46449C10.1159 9.40248 10.2209 9.3743 10.3535 9.3743C10.6905 9.3743 10.9502 9.61669 10.9502 10.1578C10.9502 10.1578 10.9502 10.7215 10.9502 11.0259C10.9612 11.2063 10.8341 11.2176 10.8341 11.2176ZM7.43073 9.04735C7.25946 9.04735 7.14343 8.92334 7.14343 8.7655C7.13791 8.60203 7.25393 8.48365 7.43073 8.48365C7.60753 8.48365 7.71804 8.60767 7.72356 8.7655C7.72909 8.9177 7.61306 9.04735 7.43073 9.04735ZM7.27051 9.41939C7.39758 9.41939 7.59096 9.41939 7.59096 9.41939C7.59096 9.41939 7.71251 9.41939 7.71251 9.56032C7.71251 9.88726 7.71251 11.0598 7.71251 11.0598C7.71251 11.0598 7.71804 11.2232 7.58543 11.2232C7.45283 11.2232 7.25946 11.2232 7.25946 11.2232C7.25946 11.2232 7.16001 11.2176 7.16001 11.0823C7.16001 10.6764 7.16001 9.53777 7.16001 9.53777C7.16001 9.53777 7.16001 9.41939 7.27051 9.41939Z"
    fill="#339FF8" />
</svg>

<svg xmlns="http://www.w3.org/2000/svg" fill="none" viewBox="0 0 20 20">
  <rect width="20" height="20" fill="#fff" rx="4" />
  <path fill="#339FF8"
    d="M10.1 15a4.811 4.811 0 0 1-2.763-.868c-.37.197-1.205.242-1.57.197-.53-.062-1.082-.513-.552-.947.829-.67.608-.941.608-.941A5.046 5.046 0 0 1 5.199 10c0-2.762 2.193-5 4.9-5C12.807 5 15 7.238 15 10s-2.193 5-4.9 5Zm0-9.267c-2.327 0-4.21 1.922-4.21 4.3a4.3 4.3 0 0 0 .613 2.233s.276.733-.431 1.274c.442.152 1.38-.13 1.425-.13a4.156 4.156 0 0 0 2.602.92c2.326 0 4.21-1.929 4.21-4.302 0-2.373-1.884-4.295-4.21-4.295Zm2.254 5.53c-.514 0-.912-.344-.912-.93 0-.587.376-.953.945-.953.541 0 .9.378.9.919 0 .66-.458.964-.934.964Zm.016-1.488c-.265 0-.359.276-.359.54 0 .31.127.542.36.542.215 0 .347-.22.347-.541 0-.265-.1-.541-.348-.541Zm-1.536 1.443h-.298c-.138 0-.11-.209-.11-.209v-.772c0-.26-.084-.412-.26-.412-.127 0-.216.09-.255.198a.429.429 0 0 0-.022.146v.88s0 .174-.154.174h-.243s-.139-.011-.139-.191v-.818c0-.23-.077-.383-.254-.383-.138 0-.22.113-.254.203a.417.417 0 0 0-.022.14v.858s.022.191-.122.191h-.237c-.177 0-.177-.191-.177-.191V9.994c0-.174-.01-.468-.01-.468s-.006-.107.11-.107h.226c.11 0 .127.107.127.107l.011.136h.011a.617.617 0 0 1 .536-.282c.227 0 .409.118.486.304h.006a.934.934 0 0 1 .226-.22c.1-.062.205-.09.338-.09.337 0 .596.243.596.784v.868c.011.18-.116.192-.116.192Zm-3.403-2.17a.276.276 0 0 1-.288-.283c-.005-.163.11-.281.288-.281a.28.28 0 0 1 .293.281c.005.153-.11.282-.293.282Zm-.16.371h.32s.122 0 .122.141v1.5s.005.163-.128.163H7.26s-.099-.005-.099-.14V9.537s0-.119.11-.119Z" />
</svg>
